X: 34
M:6/8
L:1/8
K:D
vd/ue/|f2d cAG|A2d cAG|F2D D(ED)|F3 GED|
ue|vf2d d"4"ed| fga afd|d2 =c cdc|efg gfe|
fga agf|gfg efg|fed cAc|d3 d2:|


